!!!!SEGMENT: pl-kk--kk-i-385--010_anonim--omni-die.krn
!!!cenid: 17xx:1990
!!!COM: Anonim
!!!COM-rismID: pe30004985
!!!CDT:
!!!CNT:
!!!OTL: Omni Die
!!!PDT:
!!!AGN: Sacred
!!!SMS-siglum: PL-Kk
!!!SMS-shelfmark: Kk.I.385
!!!SMS-shelfwork: 010 W
!!!SMS-variant:
!!!SMS-altvar:
!!!NIFC-rismSourceID: 1001143381
!!!NIFC-rismChildID: 1001143574
!!!NIFC-islandoraID: pl-kk:6917
!!!URL-pdf-islandora: https://repozytorium.nifc.pl/islandora/object/pl-kk%3A6917/datastream/PDF/view
!!!URL-scan: https://polish.musicsources.pl/pl/lokalizacje/galeria/rekopisy/5997 @EN{Scan on Polish Music Sources Website} @PL{Skany w portalu Dziedzictwo Muzyki Polskiej w otwartym dostępie}
!!!IIIF:
!!!ONB-nifc: UWAGA: numeracja zgodna z numeracją utworów w źródle
!!!AIN: 1 alto 1 soprn 1 tenor
!!!key:
**kern	**text	**text	**kern	**text	**text	**kern	**text	**text
*part3	*part3	*part3	*part2	*part2	*part2	*part1	*part1	*part1
*staff3	*staff3	*staff3	*staff2	*staff2	*staff2	*staff1	*staff1	*staff1
*Itenor	*	*	*Ialto	*	*	*Isoprn	*	*
*I"Tenore.	*	*	*I"Alto.	*	*	*I"Soprano.	*	*
*I'T	*	*	*I'A	*	*	*I'S	*	*
*clefC4	*	*	*clefC3	*	*	*clefC1	*	*
*k[]	*	*	*k[]	*	*	*k[]	*	*
*C:	*	*	*C:	*	*	*C:	*	*
*M3/2	*	*	*M3/2	*	*	*M3/2	*	*
=1	=1	=1	=1	=1	=1	=1	=1	=1
1c\	Om-	Ip-	1g\	Om-	Ip-	1cc\	Om-	Ip-
*2\right	*	*	*2\right	*	*	*2\right	*	*
!LO:TX:t=P:problem=all\right&colon; global	!	!	!LO:TX:t=P:problem=all\right&colon; global	!	!	!LO:TX:t=P:problem=all\right&colon; global	!	!
2c\	-ni	-sam	2g\	-ni	-sam	2cc\	-ni	-sam
=2	=2	=2	=2	=2	=2	=2	=2	=2
!	!	!LO:MO:mod=co-	!	!	!	!	!	!
2.c\	Di-	col-	1a\	di-	co-	1cc\	di-	co-
4d\	.	.	.	.	.	.	.	.
2e\	-e	-le	2g\	-e	-le	2cc\	-e	-le
=3	=3	=3	=3	=3	=3	=3	=3	=3
1f\	dic	ut	1g\	dic	ut	1cc\	dic	ut
2d\	Ma-	de	2g\	Ma-	de	2b\	Ma-	de
=4	=4	=4	=4	=4	=4	=4	=4	=4
1e\	-ri-	mo-	1g\	-ri-	mo-	1cc\	-ri-	mo-
!	!LO:MO:mod=-ae	!	!	!LO:MO:mod=-ae	!	!	!LO:MO:mod=-ae	!
2e\	-e	-le	2g\	-e	-le	2cc\	-e	-le
=5	=5	=5	=5	=5	=5	=5	=5	=5
1d\	Me-	cri-	1g\	me-	cri-	1b\	me-	cri-
2A\	-a	-mi-	2a\	-a	-mi-	2a\	-a	-mi-
=6	=6	=6	=6	=6	=6	=6	=6	=6
1d\	lau-	-num	1g\	lau-	-num	1b\	lau-	-num
2c\	-des	te	2e\	-des	te	2a\	-des	te
!LO:LB:g=original	!	!	!	!	!	!	!	!
=7	=7	=7	=7	=7	=7	=7	=7	=7
2A\	a-	li-	1d\	a-	li-	2a\	a-	li-
2.d\	.	.	.	.	.	2.a\	.	.
.	.	.	2d\	-ni-	-be-	.	.	.
4c\	-ni-	-be-	.	.	.	4a\	-ni-	-be-
!	!	!	!LO:LB:g=original	!	!	!LO:LB:g=original	!	!
=8	=8	=8	=8	=8	=8	=8	=8	=8
1.B\	-ma	-ret,	1.d\	-ma	-ret.	1.g\	-ma	-ret
=9	=9	=9	=9	=9	=9	=9	=9	=9
1B\	e-	Hanc	1e\	e-	hanc	1g#X\	e-	hanc
!	!	!LO:MO:mod=ap-	!	!	!LO:MO:mod=ap-	!	!	!LO:MO:mod=ap-
2B\	-ius	a-	2e\	-ius	a-	2g#\	-jus	a-
=10	=10	=10	=10	=10	=10	=10	=10	=10
1c\	fe-	-pel-	1e\	fe-	-pel-	1a\	fe-	-pel-
2c\	-sta	-la	2e\	-sta	-la	2a\	-sta	-la
=11	=11	=11	=11	=11	=11	=11	=11	=11
1A\	e-	ne	1f#X\	e-	ne	1a\	e-	ne
2A\	-ius	pro-	2f#\	-ius	pro-	2dd\	-ius	pro-
=12	=12	=12	=12	=12	=12	=12	=12	=12
1B\	ge-	-cel-	1g\	ge-	-cel-	1dd\	ge-	-cel-
2B\	-sta	-la	2g\	-sta	-la	2dd\	-sta	-la
=13	=13	=13	=13	=13	=13	=13	=13	=13
1e\	col-	vi-	1g\	col-	vi-	1cc\	col-	vi-
2e\	-le	-ti-	2e\	-le	-ti-	2cc\	-le	-ti-
!LO:LB:g=original	!	!	!	!	!	!	!	!
=14	=14	=14	=14	=14	=14	=14	=14	=14
1f\	de-	-o-	1a\	de-	-o-	1.cc\	de-	-o-
2e\	-vo-	-rum	2e\	-vo-	-rum	.	.	.
=15	=15	=15	=15	=15	=15	=15	=15	=15
!	!LO:MO:mod=-tis-	!	!	!LO:MO:mod=-tis-	!	!	!	!
2f\	-ti-	su-	2a\	-ti-	su-	2cc\	-vo-	-rum
2.d\	.	.	2.g\	.	.	2cc\	-tis-	su-
!	!	!	!	!	!	!LO:LB:g=original	!	!
.	.	.	.	.	.	2b\	-si-	-pe-
4d\	-si-	-pe-	4f\	-si-	-pe-	.	.	.
!	!	!	!LO:LB:g=original	!	!	!	!	!
=16	=16	=16	=16	=16	=16	=16	=16	=16
1.c\	-ma	-ret	1.e\	-ma	-ret.	1.cc\	-ma	-ret.
=17||	=17||	=17||	=17||	=17||	=17||	=17||	=17||	=17||
*M4/4	*	*	*M4/4	*	*	*M4/4	*	*
*met(c)	*	*	*met(c)	*	*	*met(c)	*	*
!	!	!LO:MO:mod=Haec	!	!	!LO:MO:mod=Haec	!	!	!LO:MO:mod=haec
!LO:TX:t=P:problem=oznaczenie metryczne C z kropką	!	!	!LO:TX:t=P:problem=oznaczenie metryczne C z kropką	!	!	!LO:TX:t=P:problem=oznaczenie metryczne C z kropką	!	!
4c\	Con-	Hec	4f\	Con-	Hec	4a\	con-	hec
4c\	-tem-	per-	4a\	-tem-	per-	4a\	-tem-	per-
4c\	-pla-	-so-	4g\	-pla-	-so-	4cc\	-pla-	-so-
4c\	-re	-na	4f\	-re	-na	4cc\	-re	-na
=18	=18	=18	=18	=18	=18	=18	=18	=18
4e\	et	no-	4g\	et	no-	4cc\	et	no-
4e\	mi-	-bis	4g\	mi-	-bis	4ee\	mi-	-bis
4c\	-ra-	do-	4a\	-ra-	do-	4ff\	-ra-	do-
4c\	-re	-na	4a\	-re	-na	4ff\	-re	-na
=19	=19	=19	=19	=19	=19	=19	=19	=19
4d\	e-	con-	4f\	e-	con-	4dd\	e-	con-
4d\	-ius	-tu-	4b-X\	-ius	-tu-	4dd\	-jus	-tu-
!LO:LB:g=original	!	!	!	!	!	!	!	!
4e\	cel-	-lit	4g\	cel-	-lit	4cc\	cel-	-lit
!	!	!LO:MO:mod=cae-	!	!	!LO:MO:mod=cae-	!	!	!LO:MO:mod=cae-
4f\	-si-	ce-	4f\	-si-	ce-	4cc\	-si-	ce-
=20	=20	=20	=20	=20	=20	=20	=20	=20
4f\	-tu-	-le-	4.g\	-tu-	-le-	4.cc\	-tu-	-le-
4e\	-di-	-sti-	.	.	.	.	.	.
.	.	.	8g\	-di-	-sti-	8cc\	-di-	-sti-
2f\	-nem	-a	2a\	-nem	-a	2cc\	-nem	-a
!	!	!	!	!	!	!LO:LB:g=original	!	!
=21	=21	=21	=21	=21	=21	=21	=21	=21
!	!	!LO:MO:mod=Haec	!	!	!LO:MO:mod=haec	!	!	!LO:MO:mod=haec
4A\	dic	Hec	4f\	dic	hec	4dd\	dic	hec
4A\	fe-	Re-	4e\	fe-	Re-	4cc#X\	fe-	Re-
!	!	!	!LO:LB:g=original	!	!	!	!	!
4A\	-li-	-gi-	4f\	-li-	-gi-	4dd\	-li-	-gi-
4A\	-cem	-na	4f\	-cem	-na	4dd\	-cem	-na
=22	=22	=22	=22	=22	=22	=22	=22	=22
!	!	!	!	!	!	!LO:TX:t=P:problem=♯ dopisany ołówkiem.poprawiony krzyżyk.	!	!
4c\	ge-	nos	4e\	ge-	nos	4ccn\	ge-	nos
4B\	-ni-	di-	4e\	-ni-	di-	4ee\	-ni-	di-
4c\	-tri-	-vi-	4e\	-tri-	-vi-	4cc\	-tri-	-vi-
4c\	-cem	-na	4e\	-cem	-na	4a\	-cem	-na
=23	=23	=23	=23	=23	=23	=23	=23	=23
4c\	dic	il-	4f\	dic	il-	4a\	dic	il-
4c\	be-	-lu-	4f\	be-	-lu-	4cc\	be-	-lu-
4d\	-a-	-stra-	4f\	-a-	-stra-	4b-X\	-a-	-stra-
4c\	-tam	-vit	4f\	-tam	-vit	4a\	-tam	-vit
=24	=24	=24	=24	=24	=24	=24	=24	=24
4.c\	vir-	gra-	4.f\	vir-	gra-	4.cc\	vir-	gra-
8c\	-gi-	-ti-	8e\	-gi-	-ti-	8b-X\	-gi-	-ti-
!LO:LB:g=original	!	!	!	!	!	!	!	!
2c\	-nem	-a	2f\	-nem	-a	2a\	-nem	-a
=25	=25	=25	=25	=25	=25	=25	=25	=25
4e\	dic	il-	4g\	dic	il-	4cc\	dic	il-
4c\	be-	-lu-	4g\	be-	-lu-	4g\	be-	-lu-
4f\	-a-	-stra-	4f\	-a-	-stra-	4a\	-a-	-stra-
4e\	-tam	-vit	4g\	-tam	-vit	4cc\	-tam	-vit
!	!	!	!	!	!	!LO:LB:g=original	!	!
=26	=26	=26	=26	=26	=26	=26	=26	=26
4.d\	vir-	gra-	4.g\	vir-	gra-	4cc\	vir-	gra-
.	.	.	.	.	.	4bn\	-gi-	-ti-
8d\	-gi-	-ti-	8g\	-gi-	-ti-	.	.	.
!	!	!	!LO:SIC:v:s=2g	!	!	!LO:TX:a:t=Da Capo.	!	!
2e\	-nem	-a.	2f\	-nem	-a.	2cc\	-nem	-a.
==	==	==	==	==	==	==	==	==
*-	*-	*-	*-	*-	*-	*-	*-	*-
!!!system-decoration: [(s1,s2,s3)]
!!!EED: Leszek Kubiak
!!!EEV: 2021-02-16
!!!ENC: Andrzej Kubiczek
!!!END: 2021-02-09
!!!YEC: Copyright 2022 Narodowy Instytut Fryderyka Chopina (https://polishscores.org)
!!!YEM: License CC-BY-4.0 (https://creativecommons.org/licenses/by/4.0)
